2Dsketch/Mainbox.svg

<?xml version="1.0" encoding="UTF-8" standalone="no"?>
<svg
   xmlns:dc="http://purl.org/dc/elements/1.1/"
   xmlns:cc="http://creativecommons.org/ns#"
   xmlns:rdf="http://www.w3.org/1999/02/22-rdf-syntax-ns#"
   xmlns:svg="http://www.w3.org/2000/svg"
   xmlns="http://www.w3.org/2000/svg"
   xmlns:sodipodi="http://sodipodi.sourceforge.net/DTD/sodipodi-0.dtd"
   xmlns:inkscape="http://www.inkscape.org/namespaces/inkscape"
   inkscape:version="1.0.2-2 (e86c870879, 2021-01-15)"
   sodipodi:docname="Mainbox.svg"
   width="210mm"
   height="297mm"
   viewBox="0 0 210 297"
   version="1.1"
   id="svg8">
  <defs
     id="defs2" />
  <sodipodi:namedview
     id="base"
     pagecolor="#ffffff"
     bordercolor="#666666"
     borderopacity="1.0"
     inkscape:pageopacity="0.0"
     inkscape:pageshadow="2"
     inkscape:zoom="0.24748737"
     inkscape:cx="1850.1447"
     inkscape:cy="1572.5786"
     inkscape:document-units="mm"
     inkscape:current-layer="layer1"
     inkscape:document-rotation="0"
     showgrid="false"
     inkscape:window-width="1920"
     inkscape:window-height="1017"
     inkscape:window-x="-8"
     inkscape:window-y="-8"
     inkscape:window-maximized="1" />
  <metadata
     id="metadata5">
    <rdf:RDF>
      <cc:Work
         rdf:about="">
        <dc:format>image/svg+xml</dc:format>
        <dc:type
           rdf:resource="http://purl.org/dc/dcmitype/StillImage" />
      </cc:Work>
    </rdf:RDF>
  </metadata>
  <g
     inkscape:label="Taso 1"
     inkscape:groupmode="layer"
     id="layer1">
    <path
       id="rect1173"
       style="fill:none;fill-rule:evenodd;stroke:#000000;stroke-width:0.914615;stroke-miterlimit:4;stroke-dasharray:none;stroke-opacity:1"
       d="m 479.4668,1290.2383 v 216.9093 l 7.42674,8.9481 h 80.72951 v -165.2734 h 191.9082 v 165.2734 h 186.85742 v -164.4102 h 191.90823 v 164.4102 h 85.7554 l 5.3857,-6.9277 -0.2525,-218.9297 H 860.24414 v 111.0918 h -11.7168 v -111.0918 z"
       transform="scale(0.26458333)"
       sodipodi:nodetypes="ccccccccccccccccccc" />
    <path
       id="rect1173-4"
       style="fill:none;fill-rule:evenodd;stroke:#000000;stroke-width:0.914597;stroke-miterlimit:4;stroke-dasharray:none;stroke-opacity:1"
       d="m 539.21289,1625.0996 v 220.9542 c 4.50173,4.9013 0,0 4.50173,4.9013 h 61.50608 v -160.4785 h 142.09375 v 160.4785 h 65.05078 v -111.5977 h 11.7168 v 111.5977 h 66.30664 v -160.4785 h 142.09573 v 160.4785 h 61.8013 l 5.6694,-5.5979 v -220.2576 z"
       transform="scale(0.26458333)"
       sodipodi:nodetypes="ccccccccccccccccccc" />
    <g
       id="panel1213"
       style="stroke-width:0.3;stroke-miterlimit:4;stroke-dasharray:none"
       transform="translate(230.56548,-49.892858)">
      <path
         style="fill:none;stroke:#000000;stroke-width:0.3;stroke-miterlimit:4;stroke-dasharray:none"
         d="m 196,360 h 22.799 v -3 h 23.068 22.71 23.068 22.71 23.068 22.71 23.068 v 3 H 402"
         id="path1135"
         sodipodi:nodetypes="cccccccccccc" />
      <path
         style="fill:none;stroke:#000000;stroke-width:0.3;stroke-miterlimit:4;stroke-dasharray:none"
         d="m 402,360 v 17.756 h -3 v 20.488 h 3 v 20.846 h -3 v 20.487 h 3 v 20.846 h -3 v 20.487 h 3 v 20.846 h -3 v 20.488 h 3 V 540"
         id="path1137" />
      <path
         style="fill:none;stroke:#000000;stroke-width:0.3;stroke-miterlimit:4;stroke-dasharray:none"
         d="m 402,540 h -22.799 v 0 h -23.068 v 0 h -22.71 v 0 h -23.068 v 0 h -22.71 v 0 h -23.068 v 0 h -22.71 v 0 h -23.068 v 0 H 196"
         id="path1139" />
      <path
         style="fill:none;stroke:#000000;stroke-width:0.3;stroke-miterlimit:4;stroke-dasharray:none"
         d="m 196,540 v -17.756 h 3 v -20.488 h -3 V 480.91 h 3 v -20.487 h -3 v -20.846 h 3 V 419.09 h -3 v -20.846 h 3 v -20.488 h -3 V 360"
         id="path1141" />
    </g>
    <g
       id="panel6019"
       style="stroke-width:0.3;stroke-miterlimit:4;stroke-dasharray:none"
       transform="translate(230.56548,-49.892858)">
      <path
         style="fill:none;stroke:#000000;stroke-width:0.3;stroke-miterlimit:4;stroke-dasharray:none"
         d="m 8,199 h 17.5772 v -3 h 20.8456 v 3 h 20.4877 v -3 h 20.8457 v 3 h 20.4878 v -3 h 20.846 v 3 h 20.487 v -3 h 20.846 v 3 H 188"
         id="path1174" />
      <path
         style="fill:none;stroke:#000000;stroke-width:0.3;stroke-miterlimit:4;stroke-dasharray:none"
         d="m 188,199 v 19.196 h 3 v 22.465 66.678 22.465 h -3 V 349"
         id="path1176"
         sodipodi:nodetypes="cccccccc" />
      <path
         style="fill:none;stroke:#000000;stroke-width:0.3;stroke-miterlimit:4;stroke-dasharray:none"
         d="m 188,349 h -17.577 v 3 h -20.846 v -3 H 129.09 v 3 h -20.846 v -3 H 87.7562 v 3 H 66.9105 v -3 H 46.4228 v 3 H 25.5772 v -3 H 8"
         id="path1178" />
      <path
         style="fill:none;stroke:#000000;stroke-width:0.3;stroke-miterlimit:4;stroke-dasharray:none"
         d="m 8,349 v -19.196 0 -22.465 0 -22.107 0 -22.464 0 -22.107 0 -22.465 0 V 199"
         id="path1180" />
    </g>
    <g
       id="panel4383"
       style="stroke-width:0.3;stroke-miterlimit:4;stroke-dasharray:none"
       transform="translate(230.56548,-49.892858)">
      <path
         style="fill:none;stroke:#000000;stroke-width:0.3;stroke-miterlimit:4;stroke-dasharray:none"
         d="m 196,196 h 22.978 v 3 h 22.71 23.068 22.71 23.068 22.71 23.068 22.71 v -3 H 402"
         id="path1222"
         sodipodi:nodetypes="cccccccccccc" />
      <path
         style="fill:none;stroke:#000000;stroke-width:0.3;stroke-miterlimit:4;stroke-dasharray:none"
         d="m 402,196 v 22.375 h -3 v 22.107 67.036 22.107 h 3 V 352"
         id="path1224"
         sodipodi:nodetypes="cccccccc" />
      <path
         style="fill:none;stroke:#000000;stroke-width:0.3;stroke-miterlimit:4;stroke-dasharray:none"
         d="m 402,352 h -22.978 v -3 h -22.71 -23.068 -22.71 -23.068 -22.71 -23.068 -22.71 v 3 H 196"
         id="path1226"
         sodipodi:nodetypes="cccccccccccc" />
      <path
         style="fill:none;stroke:#000000;stroke-width:0.3;stroke-miterlimit:4;stroke-dasharray:none"
         d="m 196,352 v -22.375 h 3 v -22.107 -67.036 -22.107 h -3 V 196"
         id="path1228"
         sodipodi:nodetypes="cccccccc" />
    </g>
    <g
       id="panel3151"
       style="stroke-width:0.3;stroke-miterlimit:4;stroke-dasharray:none"
       transform="translate(230.56548,-49.892858)">
      <path
         style="fill:none;stroke:#000000;stroke-width:0.3;stroke-miterlimit:4;stroke-dasharray:none"
         d="m 410,199 h 17.577 v -3 h 20.846 v 3 h 20.487 v -3 h 20.846 v 3 h 20.488 v -3 h 20.846 v 3 h 20.487 v -3 h 20.846 v 3 H 590"
         id="path1231" />
      <path
         style="fill:none;stroke:#000000;stroke-width:0.3;stroke-miterlimit:4;stroke-dasharray:none"
         d="m 590,199 v 19.196 0 22.465 0 22.107 0 22.464 0 22.107 0 22.465 0 V 349"
         id="path1233" />
      <path
         style="fill:none;stroke:#000000;stroke-width:0.3;stroke-miterlimit:4;stroke-dasharray:none"
         d="m 590,349 h -17.577 v 3 h -20.846 v -3 H 531.09 v 3 h -20.846 v -3 h -20.488 v 3 H 468.91 v -3 h -20.487 v 3 h -20.846 v -3 H 410"
         id="path1235" />
      <path
         style="fill:none;stroke:#000000;stroke-width:0.3;stroke-miterlimit:4;stroke-dasharray:none"
         d="m 410,349 v -19.196 h -3 v -22.465 -66.678 -22.465 h 3 V 199"
         id="path1237"
         sodipodi:nodetypes="cccccccc" />
    </g>
    <g
       id="panel8309"
       style="stroke-width:0.3;stroke-miterlimit:4;stroke-dasharray:none"
       transform="translate(230.56548,-49.892858)">
      <path
         style="fill:none;stroke:#000000;stroke-width:0.3;stroke-miterlimit:4;stroke-dasharray:none"
         d="m 196,8 h 22.799 v 0 h 23.068 v 0 h 22.71 v 0 h 23.068 v 0 h 22.71 v 0 h 23.068 v 0 h 22.71 v 0 h 23.068 V 8 H 402"
         id="path1240" />
      <path
         style="fill:none;stroke:#000000;stroke-width:0.3;stroke-miterlimit:4;stroke-dasharray:none"
         d="m 402,8 v 17.7562 h -3 v 20.4876 h 3 v 20.8457 h -3 v 20.4877 h 3 v 20.8458 h -3 v 20.487 h 3 v 20.846 h -3 v 20.488 h 3 V 188"
         id="path1242" />
      <path
         style="fill:none;stroke:#000000;stroke-width:0.3;stroke-miterlimit:4;stroke-dasharray:none"
         d="m 402,188 h -22.799 v 3 h -23.068 -22.71 -23.068 -22.71 -23.068 -22.71 -23.068 v -3 H 196"
         id="path1244"
         sodipodi:nodetypes="cccccccccccc" />
      <path
         style="fill:none;stroke:#000000;stroke-width:0.3;stroke-miterlimit:4;stroke-dasharray:none"
         d="m 196,188 v -17.756 h 3 v -20.488 h -3 V 128.91 h 3 v -20.487 h -3 V 87.5772 h 3 V 67.0895 h -3 V 46.2438 h 3 V 25.7562 h -3 V 8"
         id="path1246" />
    </g>
  </g>
</svg>

<?xml version="1.0" encoding="UTF-8" standalone="no"?>
<svg
   xmlns:dc="http://purl.org/dc/elements/1.1/"
   xmlns:cc="http://creativecommons.org/ns#"
   xmlns:rdf="http://www.w3.org/1999/02/22-rdf-syntax-ns#"
   xmlns:svg="http://www.w3.org/2000/svg"
   xmlns="http://www.w3.org/2000/svg"
   xmlns:sodipodi="http://sodipodi.sourceforge.net/DTD/sodipodi-0.dtd"
   xmlns:inkscape="http://www.inkscape.org/namespaces/inkscape"
   inkscape:version="1.0.2-2 (e86c870879, 2021-01-15)"
   sodipodi:docname="Mainbox.svg"
   width="210mm"
   height="297mm"
   viewBox="0 0 210 297"
   version="1.1"
   id="svg8">
  <defs
     id="defs2" />
  <sodipodi:namedview
     id="base"
     pagecolor="#ffffff"
     bordercolor="#666666"
     borderopacity="1.0"
     inkscape:pageopacity="0.0"
     inkscape:pageshadow="2"
     inkscape:zoom="0.49497474"
     inkscape:cx="1765.1964"
     inkscape:cy="847.94011"
     inkscape:document-units="mm"
     inkscape:current-layer="layer1"
     inkscape:document-rotation="0"
     showgrid="false"
     inkscape:window-width="1920"
     inkscape:window-height="1017"
     inkscape:window-x="-8"
     inkscape:window-y="-8"
     inkscape:window-maximized="1" />
  <metadata
     id="metadata5">
    <rdf:RDF>
      <cc:Work
         rdf:about="">
        <dc:format>image/svg+xml</dc:format>
        <dc:type
           rdf:resource="http://purl.org/dc/dcmitype/StillImage" />
      </cc:Work>
    </rdf:RDF>
  </metadata>
  <g
     inkscape:label="Taso 1"
     inkscape:groupmode="layer"
     id="layer1">
    <path
       id="rect1173"
       style="fill:none;fill-rule:evenodd;stroke:#000000;stroke-width:0.914615;stroke-miterlimit:4;stroke-dasharray:none;stroke-opacity:1"
       d="M 479.4668 1290.2383 L 479.4668 1516.0957 L 567.62305 1516.0957 L 567.62305 1350.8223 L 759.53125 1350.8223 L 759.53125 1516.0957 L 946.38867 1516.0957 L 946.38867 1351.6855 L 1138.2969 1351.6855 L 1138.2969 1516.0957 L 1229.1855 1516.0957 L 1229.1855 1290.2383 L 860.24414 1290.2383 L 860.24414 1401.3301 L 848.52734 1401.3301 L 848.52734 1290.2383 L 479.4668 1290.2383 z "
       transform="scale(0.26458333)" />
    <path
       id="rect1173-4"
       style="fill:none;fill-rule:evenodd;stroke:#000000;stroke-width:0.914597;stroke-miterlimit:4;stroke-dasharray:none;stroke-opacity:1"
       d="M 539.21289 1625.0996 L 539.21289 1850.9551 L 605.2207 1850.9551 L 605.2207 1690.4766 L 747.31445 1690.4766 L 747.31445 1850.9551 L 812.36523 1850.9551 L 812.36523 1739.3574 L 824.08203 1739.3574 L 824.08203 1850.9551 L 890.38867 1850.9551 L 890.38867 1690.4766 L 1032.4844 1690.4766 L 1032.4844 1850.9551 L 1099.9551 1850.9551 L 1099.9551 1625.0996 L 539.21289 1625.0996 z "
       transform="scale(0.26458333)" />
    <g
       id="panel1213"
       style="stroke-width:0.3;stroke-miterlimit:4;stroke-dasharray:none"
       transform="translate(230.56548,-49.892858)">
      <path
         style="fill:none;stroke:#000000;stroke-width:0.3;stroke-miterlimit:4;stroke-dasharray:none"
         d="m 196,360 h 22.799 v -3 h 23.068 22.71 23.068 22.71 23.068 22.71 23.068 v 3 H 402"
         id="path1135"
         sodipodi:nodetypes="cccccccccccc" />
      <path
         style="fill:none;stroke:#000000;stroke-width:0.3;stroke-miterlimit:4;stroke-dasharray:none"
         d="m 402,360 v 17.756 h -3 v 20.488 h 3 v 20.846 h -3 v 20.487 h 3 v 20.846 h -3 v 20.487 h 3 v 20.846 h -3 v 20.488 h 3 V 540"
         id="path1137" />
      <path
         style="fill:none;stroke:#000000;stroke-width:0.3;stroke-miterlimit:4;stroke-dasharray:none"
         d="m 402,540 h -22.799 v 0 h -23.068 v 0 h -22.71 v 0 h -23.068 v 0 h -22.71 v 0 h -23.068 v 0 h -22.71 v 0 h -23.068 v 0 H 196"
         id="path1139" />
      <path
         style="fill:none;stroke:#000000;stroke-width:0.3;stroke-miterlimit:4;stroke-dasharray:none"
         d="m 196,540 v -17.756 h 3 v -20.488 h -3 V 480.91 h 3 v -20.487 h -3 v -20.846 h 3 V 419.09 h -3 v -20.846 h 3 v -20.488 h -3 V 360"
         id="path1141" />
    </g>
    <g
       id="panel6019"
       style="stroke-width:0.3;stroke-miterlimit:4;stroke-dasharray:none"
       transform="translate(230.56548,-49.892858)">
      <path
         style="fill:none;stroke:#000000;stroke-width:0.3;stroke-miterlimit:4;stroke-dasharray:none"
         d="m 8,199 h 17.5772 v -3 h 20.8456 v 3 h 20.4877 v -3 h 20.8457 v 3 h 20.4878 v -3 h 20.846 v 3 h 20.487 v -3 h 20.846 v 3 H 188"
         id="path1174" />
      <path
         style="fill:none;stroke:#000000;stroke-width:0.3;stroke-miterlimit:4;stroke-dasharray:none"
         d="m 188,199 v 19.196 h 3 v 22.465 66.678 22.465 h -3 V 349"
         id="path1176"
         sodipodi:nodetypes="cccccccc" />
      <path
         style="fill:none;stroke:#000000;stroke-width:0.3;stroke-miterlimit:4;stroke-dasharray:none"
         d="m 188,349 h -17.577 v 3 h -20.846 v -3 H 129.09 v 3 h -20.846 v -3 H 87.7562 v 3 H 66.9105 v -3 H 46.4228 v 3 H 25.5772 v -3 H 8"
         id="path1178" />
      <path
         style="fill:none;stroke:#000000;stroke-width:0.3;stroke-miterlimit:4;stroke-dasharray:none"
         d="m 8,349 v -19.196 0 -22.465 0 -22.107 0 -22.464 0 -22.107 0 -22.465 0 V 199"
         id="path1180" />
    </g>
    <g
       id="panel4383"
       style="stroke-width:0.3;stroke-miterlimit:4;stroke-dasharray:none"
       transform="translate(230.56548,-49.892858)">
      <path
         style="fill:none;stroke:#000000;stroke-width:0.3;stroke-miterlimit:4;stroke-dasharray:none"
         d="m 196,196 h 22.978 v 3 h 22.71 23.068 22.71 23.068 22.71 23.068 22.71 v -3 H 402"
         id="path1222"
         sodipodi:nodetypes="cccccccccccc" />
      <path
         style="fill:none;stroke:#000000;stroke-width:0.3;stroke-miterlimit:4;stroke-dasharray:none"
         d="m 402,196 v 22.375 h -3 v 22.107 67.036 22.107 h 3 V 352"
         id="path1224"
         sodipodi:nodetypes="cccccccc" />
      <path
         style="fill:none;stroke:#000000;stroke-width:0.3;stroke-miterlimit:4;stroke-dasharray:none"
         d="m 402,352 h -22.978 v -3 h -22.71 -23.068 -22.71 -23.068 -22.71 -23.068 -22.71 v 3 H 196"
         id="path1226"
         sodipodi:nodetypes="cccccccccccc" />
      <path
         style="fill:none;stroke:#000000;stroke-width:0.3;stroke-miterlimit:4;stroke-dasharray:none"
         d="m 196,352 v -22.375 h 3 v -22.107 -67.036 -22.107 h -3 V 196"
         id="path1228"
         sodipodi:nodetypes="cccccccc" />
    </g>
    <g
       id="panel3151"
       style="stroke-width:0.3;stroke-miterlimit:4;stroke-dasharray:none"
       transform="translate(230.56548,-49.892858)">
      <path
         style="fill:none;stroke:#000000;stroke-width:0.3;stroke-miterlimit:4;stroke-dasharray:none"
         d="m 410,199 h 17.577 v -3 h 20.846 v 3 h 20.487 v -3 h 20.846 v 3 h 20.488 v -3 h 20.846 v 3 h 20.487 v -3 h 20.846 v 3 H 590"
         id="path1231" />
      <path
         style="fill:none;stroke:#000000;stroke-width:0.3;stroke-miterlimit:4;stroke-dasharray:none"
         d="m 590,199 v 19.196 0 22.465 0 22.107 0 22.464 0 22.107 0 22.465 0 V 349"
         id="path1233" />
      <path
         style="fill:none;stroke:#000000;stroke-width:0.3;stroke-miterlimit:4;stroke-dasharray:none"
         d="m 590,349 h -17.577 v 3 h -20.846 v -3 H 531.09 v 3 h -20.846 v -3 h -20.488 v 3 H 468.91 v -3 h -20.487 v 3 h -20.846 v -3 H 410"
         id="path1235" />
      <path
         style="fill:none;stroke:#000000;stroke-width:0.3;stroke-miterlimit:4;stroke-dasharray:none"
         d="m 410,349 v -19.196 h -3 v -22.465 -66.678 -22.465 h 3 V 199"
         id="path1237"
         sodipodi:nodetypes="cccccccc" />
    </g>
    <g
       id="panel8309"
       style="stroke-width:0.3;stroke-miterlimit:4;stroke-dasharray:none"
       transform="translate(230.56548,-49.892858)">
      <path
         style="fill:none;stroke:#000000;stroke-width:0.3;stroke-miterlimit:4;stroke-dasharray:none"
         d="m 196,8 h 22.799 v 0 h 23.068 v 0 h 22.71 v 0 h 23.068 v 0 h 22.71 v 0 h 23.068 v 0 h 22.71 v 0 h 23.068 V 8 H 402"
         id="path1240" />
      <path
         style="fill:none;stroke:#000000;stroke-width:0.3;stroke-miterlimit:4;stroke-dasharray:none"
         d="m 402,8 v 17.7562 h -3 v 20.4876 h 3 v 20.8457 h -3 v 20.4877 h 3 v 20.8458 h -3 v 20.487 h 3 v 20.846 h -3 v 20.488 h 3 V 188"
         id="path1242" />
      <path
         style="fill:none;stroke:#000000;stroke-width:0.3;stroke-miterlimit:4;stroke-dasharray:none"
         d="m 402,188 h -22.799 v 3 h -23.068 -22.71 -23.068 -22.71 -23.068 -22.71 -23.068 v -3 H 196"
         id="path1244"
         sodipodi:nodetypes="cccccccccccc" />
      <path
         style="fill:none;stroke:#000000;stroke-width:0.3;stroke-miterlimit:4;stroke-dasharray:none"
         d="m 196,188 v -17.756 h 3 v -20.488 h -3 V 128.91 h 3 v -20.487 h -3 V 87.5772 h 3 V 67.0895 h -3 V 46.2438 h 3 V 25.7562 h -3 V 8"
         id="path1246" />
    </g>
  </g>
</svg>
